SVG Logos/APIs/graphql-shield.svg

<svg width="180" height="90" viewBox="0 0 180 90" fill="none" xmlns="http://www.w3.org/2000/svg">
<path d="M55.525 41.2903C56.6306 38.9212 55.4663 36.1446 55.4165 36.0276L55.0681 35.2139L54.2184 35.4645C54.1193 35.4938 52.2395 36.0629 50.9161 37.4857C50.7562 37.0032 50.5633 36.5441 50.313 36.1073C51.008 35.3202 51.9527 33.9374 51.9527 32.23C51.9527 29.6049 49.71 27.6425 49.6144 27.5603L48.9639 27L48.3133 27.5603C48.2181 27.6425 45.9751 29.6049 45.9751 32.23C45.9751 34.0551 47.0758 35.7794 48.4911 36.9449C49.0908 37.9002 49.3359 39.2273 49.5955 40.4473C49.4512 41.9303 49.8764 43.2952 50.0654 43.8127C50.0311 45.2555 49.7764 46.6848 49.3063 48.0682C48.0638 49.3037 47.607 51.0354 47.4608 51.7838C46.5011 53.1962 45.093 54.3599 44.005 55.128C41.8755 55.5635 40.3257 57.2667 40.2517 57.3495L40.1728 57.4374C39.7639 57.6574 39.3203 57.8921 38.9997 58.0646C38.6655 57.8846 38.2538 57.6667 37.8276 57.4371C36.8611 56.3734 35.4377 55.4232 33.9961 55.1282C32.9079 54.3596 31.4995 53.196 30.5401 51.7838C30.3936 51.0354 29.937 49.3037 28.6943 48.0679C28.2244 46.6848 27.9695 45.2555 27.9352 43.8125C28.1242 43.2952 28.5495 41.9297 28.4054 40.4467C28.6881 39.1108 28.9046 37.8792 29.4861 36.97C30.8955 35.7628 32.0255 34.023 32.0255 32.1636C32.0255 29.5268 29.7685 27.6275 29.6725 27.5479L29.0367 27.0215L28.401 27.5479C28.3049 27.6275 26.0477 29.5268 26.0477 32.1636C26.0477 33.873 26.9973 35.2863 27.6889 36.0894C27.4295 36.5298 27.2343 36.991 27.0749 37.4753C25.752 36.06 23.8811 35.4935 23.7822 35.4645L22.9325 35.2139L22.5841 36.0276C22.534 36.1446 21.37 38.9212 22.4756 41.2903C23.2656 42.9834 24.9914 43.9224 25.9607 44.3349C26.0041 45.1471 26.1092 45.9543 26.2743 46.7522C24.5724 46.3421 22.9556 46.7086 22.8645 46.7299L22 46.9328L22.1025 47.8142C22.1173 47.9405 22.4875 50.9291 24.6323 52.4294C25.9207 53.3311 27.6406 53.5345 29.2055 53.342C29.7867 54.1119 30.4606 54.8029 31.1325 55.3998C29.4871 56.0379 28.3573 57.2792 28.2943 57.3495L27.6993 58.0135L28.2943 58.6776C28.3792 58.7723 30.4056 61 33.0216 61C34.7832 61 36.2762 59.9904 37.0903 59.3017C39.1479 60.4049 38.3753 59.9987 38.9991 60.3403C40.335 59.6099 38.2432 60.7302 40.91 59.3017C41.7242 59.9904 43.2171 61 44.9788 61C47.5948 61 49.6212 58.7723 49.7061 58.6776L50.3011 58.0135L49.7061 57.3495C49.643 57.2792 48.5132 56.0382 46.8679 55.3998C47.5397 54.8029 48.2136 54.1119 48.7949 53.342C50.36 53.5345 52.0799 53.3309 53.368 52.4294C55.5131 50.9288 55.8814 47.94 55.8962 47.8134L55.998 46.9328L55.1341 46.7299C55.0429 46.7086 53.4274 46.3424 51.726 46.7522C51.8911 45.9543 51.9965 45.1471 52.0396 44.3349C53.009 43.9224 54.7348 42.9834 55.525 41.2903ZM29.0359 29.752C29.4944 30.3185 30.0328 31.1914 30.0328 32.1636C30.0328 33.1384 29.497 34.0193 29.0372 34.5955C28.5777 34.0188 28.0404 33.1361 28.0404 32.1636C28.0404 31.1888 28.5777 30.3177 29.0359 29.752ZM24.2814 40.4488C23.8663 39.5591 23.9678 38.5023 24.1321 37.7576C24.8291 38.1106 25.7375 38.7153 26.1539 39.6073C26.569 40.4968 26.4675 41.5533 26.3031 42.2983C25.6061 41.9456 24.6978 41.3406 24.2814 40.4488ZM25.7751 50.7986C24.9745 50.2383 24.5371 49.2783 24.3086 48.553C25.068 48.5219 26.1173 48.6075 26.9181 49.1675C27.719 49.7278 28.1593 50.6868 28.3906 51.4131C27.6284 51.4445 26.576 51.3589 25.7751 50.7986ZM33.0216 59.0091C32.0439 59.0091 31.1325 58.4755 30.5263 58.0135C31.1327 57.5513 32.0442 57.018 33.0216 57.018C33.9992 57.018 34.9104 57.551 35.5169 58.0135C34.9104 58.4758 33.9992 59.0091 33.0216 59.0091ZM53.868 37.756C54.0326 38.5013 54.1346 39.5586 53.719 40.4488C53.301 41.3443 52.3942 41.9482 51.698 42.2999C51.5331 41.5546 51.4314 40.4976 51.8467 39.6073C52.265 38.7114 53.172 38.1077 53.868 37.756ZM48.9639 29.7769C49.4247 30.3631 49.9602 31.2542 49.9602 32.23C49.9602 33.2041 49.4218 34.0653 48.9644 34.6212C48.5072 34.0647 47.9678 33.2022 47.9678 32.23C47.9678 31.2539 48.5034 30.3626 48.9639 29.7769ZM44.9788 59.0091C44.0019 59.0091 43.0912 58.4766 42.4848 58.0143C43.0922 57.5521 44.005 57.018 44.9788 57.018C45.9567 57.018 46.8681 57.5513 47.474 58.0135C46.8676 58.4758 45.9564 59.0091 44.9788 59.0091ZM53.6894 48.553C53.4604 49.2793 53.023 50.2404 52.2252 50.7986C51.4244 51.3589 50.3722 51.4445 49.61 51.4131C49.8413 50.6868 50.2816 49.7281 51.0825 49.1678C51.8828 48.6077 52.9311 48.5221 53.6894 48.553Z" fill="url(#paint0_linear_864_1)"/>
<path fill-rule="evenodd" clip-rule="evenodd" d="M39.0001 54.1666C39.0001 54.1666 46.3334 50.4999 46.3334 44.9999V38.5833L39.0001 35.8333L31.6667 38.5833V44.9999C31.6667 50.4999 39.0001 54.1666 39.0001 54.1666ZM34.6667 40.6623V44.9999C34.6667 46.4106 35.6548 47.9407 37.3089 49.388C37.8942 49.9001 38.4878 50.3348 39.0001 50.6767C39.5124 50.3348 40.106 49.9001 40.6912 49.388C42.3453 47.9407 43.3334 46.4106 43.3334 44.9999V40.6623L39.0001 39.0373L34.6667 40.6623ZM40.3491 51.487C40.3499 51.4874 40.349 51.487 40.3465 51.4857L40.3491 51.487Z" fill="url(#paint1_linear_864_1)"/>
<path fill-rule="evenodd" clip-rule="evenodd" d="M15 25.675C15.7279 25.675 16.4195 25.8306 17.0433 26.1103L36.1439 15.125C37.0439 14.625 38.1439 14.325 39.1439 14.325C40.2439 14.325 41.2439 14.625 42.1439 15.125L58.5439 24.625C57.3439 25.425 56.4439 26.6249 55.8439 28.0249L39.9438 18.825C39.6439 18.625 39.344 18.625 39.0441 18.625H39.0439C38.7439 18.625 38.4439 18.725 38.1439 18.825L19.8225 29.35C19.9382 29.772 20 30.2163 20 30.675C20 33.4365 17.7614 35.675 15 35.675C12.2386 35.675 10 33.4365 10 30.675C10 27.9136 12.2386 25.675 15 25.675ZM61.3492 25.954C61.866 25.7733 62.4215 25.675 63 25.675C65.7614 25.675 68 27.9136 68 30.675C68 32.5076 67.0142 34.1099 65.5439 34.9805V55.5249C65.5439 57.7249 64.3439 59.725 62.5439 60.825L46.1439 70.225C46.1439 68.725 45.6438 67.225 44.7438 66.125L60.3439 57.125C60.9439 56.825 61.2438 56.2249 61.2438 55.5249V35.3579C59.5846 34.7354 58.3442 33.2564 58.0611 31.4593C57.9844 31.1284 57.9438 30.7825 57.9438 30.4249C57.9438 29.4249 58.2439 28.525 58.8439 27.725C58.8939 27.675 58.9439 27.6 58.9939 27.525C59.0439 27.45 59.0939 27.375 59.1439 27.325C59.4439 27.025 59.6438 26.825 59.9438 26.625C59.9438 26.625 60.0439 26.6249 60.0439 26.5249C60.1057 26.4631 60.1675 26.4395 60.2528 26.4069C60.3056 26.3868 60.3674 26.3632 60.4438 26.325C60.4438 26.325 60.5439 26.325 60.5439 26.225C60.6439 26.175 60.7189 26.15 60.7939 26.1249C60.8689 26.0999 60.9439 26.0749 61.0439 26.0249C61.1403 26.0008 61.2425 25.9767 61.3492 25.954ZM43.8439 69.4305C43.9458 69.8284 44 70.2454 44 70.675C44 73.4365 41.7614 75.675 39 75.675C36.5102 75.675 34.4454 73.8552 34.0633 71.473L15.8439 60.9249C13.9439 59.8249 12.8439 57.825 12.8439 55.625V37.125C13.5439 37.325 14.3439 37.5249 15.0439 37.5249C15.7439 37.5249 16.4439 37.425 17.0439 37.225V55.625C17.0439 56.325 17.4438 56.925 17.9438 57.225L35.3263 67.2833C36.2398 66.2943 37.5476 65.675 39 65.675C41.3291 65.675 43.2862 67.2675 43.8419 69.423L43.8436 69.4247L43.8439 69.4249V69.4305Z" fill="url(#paint2_linear_864_1)"/>
<path d="M79.7001 41.1381V41.3451C79.7001 44.8641 83.0121 46.8651 87.3131 46.8651C91.4071 46.8651 94.4431 45.0251 94.4431 41.5291C94.4431 37.5961 90.2111 36.1241 87.7271 35.2501C85.5881 34.5141 84.7601 34.1461 84.7601 33.4331C84.7601 32.8351 85.3811 32.2141 86.9451 32.2141C88.8081 32.2141 89.7051 33.2491 89.7051 34.1231V34.2841H94.1901V34.0311C94.1901 30.4661 91.0391 28.2351 86.8531 28.2351C82.7591 28.2351 79.8381 30.3741 79.8381 33.8011C79.8381 37.5041 83.5871 38.8841 86.4391 39.8271C88.6011 40.5631 89.4981 41.0231 89.4981 41.7821C89.4981 42.3111 88.9461 42.8861 87.2211 42.8861C85.1281 42.8861 84.1851 41.9431 84.1851 41.2531V41.1381H79.7001Z" fill="#0B0D11"/>
<path d="M108.664 28.5801V35.5491H101.35V28.5801H96.7734V46.5201H101.35V39.8501H108.664V46.5201H113.264V28.5801H108.664Z" fill="#0B0D11"/>
<path d="M116.323 28.5801V46.5201H120.923V28.5801H116.323Z" fill="#0B0D11"/>
<path d="M123.969 46.5201H137.746V42.0811H128.569V39.7811H136.113V35.6181H128.569V33.0421H137.746V28.5801H123.969V46.5201Z" fill="#0B0D11"/>
<path d="M140.262 46.5201H153.441V42.0811H144.839V28.5801H140.262V46.5201Z" fill="#0B0D11"/>
<path d="M155.409 46.5201H163.735C169.347 46.5201 172.222 42.4491 172.222 37.5501C172.222 32.6741 169.347 28.5801 163.735 28.5801H155.409V46.5201ZM163.39 33.0421C166.127 33.0421 167.576 34.8591 167.576 37.5501C167.576 40.2411 166.127 42.0811 163.39 42.0811H160.009V33.0421H163.39Z" fill="#0B0D11"/>
<path fill-rule="evenodd" clip-rule="evenodd" d="M128 51.865C130.3 51.865 132.1 53.665 132.1 55.865C132.1 57.365 131.3 58.565 130.1 59.365C130.184 59.4067 130.263 59.4485 130.338 59.4884C130.625 59.6398 130.863 59.765 131.1 59.765H131.1C131.2 59.765 131.6 59.765 131.8 59.4651L133.3 60.665C132.7 61.465 131.8 61.765 131.1 61.765C130.146 61.765 129.441 61.2672 128.751 60.7805C128.284 60.451 127.825 60.1266 127.3 59.9651C125.4 59.6651 123.9 57.9651 123.9 55.9651C123.9 53.6651 125.7 51.865 128 51.865ZM128 57.9651C129.2 57.9651 130.1 57.065 130.1 55.865C130.1 54.665 129.2 53.765 128 53.765C126.8 53.765 125.9 54.665 125.9 55.865C125.9 57.065 126.8 57.9651 128 57.9651ZM83.7001 55.265H87.4001V59.765H85.8V59.0651C85.4 59.6651 84.6 59.9651 83.8 59.9651C81.6 59.9651 79.7001 58.1651 79.7001 55.9651C79.7001 53.7651 81.6 51.9651 83.8 51.9651C85.1 51.9651 86.3001 52.5651 87.1001 53.5651L85.5001 54.665C85.1001 54.165 84.5 53.865 83.8 53.865C82.6 53.865 81.7001 54.7651 81.7001 55.9651C81.7001 57.1651 82.6 58.0651 83.8 58.0651C84.5 58.0651 85.1001 57.765 85.5001 57.165V56.9651H83.7001V55.265ZM93.1002 52.0652C95.1002 52.0652 96.0002 53.3651 96.0002 54.8651C96.0002 55.9651 95.5002 56.9652 94.5002 57.4652L96.2002 59.7651H93.8002L92.3002 57.6652H91.3002V59.7651H89.3002V52.0652H93.1002ZM91.3002 53.9652V55.9652H93.0002C93.8002 55.9652 94.1002 55.4652 94.1002 54.9652C94.1002 54.3652 93.8002 53.9652 93.0002 53.9652H91.3002ZM105.4 59.7651L102.3 52.0652H100.3L97.2001 59.7651H99.4001L99.8 58.6652H102.8L103.2 59.7651H105.4ZM100.4 56.8651L101.3 54.5652L102.1 56.8651H100.4ZM106.9 52.0652H110.3C112.4 52.0652 113.3 53.4652 113.3 55.0652C113.3 56.6652 112.3 58.0652 110.3 58.0652H108.9V59.8651H106.9V52.0652ZM108.9 53.8651V56.2651H110.2C111 56.2651 111.3 55.7652 111.3 55.0652C111.3 54.4652 111 53.8651 110.2 53.8651H108.9ZM122.2 59.7651V52.0652H120.2V55.0652H117V52.0652H115V59.7651H117V56.8651H120.2V59.7651H122.2ZM135.8 52.0652H133.8V59.7651H139.5V57.8651H135.8V52.0652Z" fill="#7F818C"/>
<defs>
<linearGradient id="paint0_linear_864_1" x1="18.1689" y1="25.7958" x2="69.2392" y2="77.1644" gradientUnits="userSpaceOnUse">
<stop stop-color="#47DEFF"/>
<stop offset="1" stop-color="#9847FF"/>
</linearGradient>
<linearGradient id="paint1_linear_864_1" x1="30.0141" y1="35.1839" x2="56.9147" y2="56.8301" gradientUnits="userSpaceOnUse">
<stop stop-color="#47DEFF"/>
<stop offset="1" stop-color="#9847FF"/>
</linearGradient>
<linearGradient id="paint2_linear_864_1" x1="3.4646" y1="12.152" x2="95.5015" y2="99.6715" gradientUnits="userSpaceOnUse">
<stop stop-color="#47DEFF"/>
<stop offset="1" stop-color="#9847FF"/>
</linearGradient>
</defs>
</svg>

<svg xmlns="http://www.w3.org/2000/svg" fill="none" viewBox="0 0 180 90"><path fill="url(#a)" d="M55.525 41.29c1.106-2.369-.059-5.145-.108-5.262l-.349-.814-.85.25c-.099.03-1.979.599-3.302 2.022a7.48 7.48 0 0 0-.603-1.379c.695-.787 1.64-2.17 1.64-3.877 0-2.625-2.243-4.587-2.339-4.67l-.65-.56-.65.56c-.096.082-2.339 2.045-2.339 4.67 0 1.825 1.1 3.55 2.516 4.715.6.955.845 2.282 1.105 3.502-.145 1.483.28 2.848.47 3.366a14.255 14.255 0 0 1-.76 4.255c-1.242 1.236-1.699 2.967-1.845 3.716-.96 1.412-2.368 2.576-3.456 3.344-2.13.435-3.68 2.139-3.753 2.221l-.08.088c-.408.22-.852.455-1.172.628-.334-.18-.746-.398-1.172-.628-.967-1.064-2.39-2.014-3.832-2.309-1.088-.768-2.497-1.932-3.456-3.344-.146-.749-.603-2.48-1.846-3.716a14.258 14.258 0 0 1-.759-4.255c.19-.518.614-1.883.47-3.366.283-1.336.5-2.568 1.081-3.477 1.41-1.207 2.54-2.947 2.54-4.806 0-2.637-2.258-4.537-2.354-4.616l-.635-.526-.636.526c-.096.08-2.353 1.979-2.353 4.616 0 1.709.95 3.122 1.64 3.925-.258.44-.454.902-.613 1.386-1.323-1.415-3.194-1.982-3.293-2.01l-.85-.251-.348.814c-.05.117-1.214 2.893-.108 5.262.79 1.693 2.515 2.632 3.485 3.045.043.812.148 1.62.313 2.417-1.702-.41-3.318-.043-3.41-.022l-.864.203.102.881c.015.127.386 3.115 2.53 4.615 1.289.902 3.009 1.105 4.573.913.582.77 1.256 1.46 1.928 2.058-1.646.638-2.776 1.88-2.839 1.95l-.595.663.595.665c.085.094 2.112 2.322 4.728 2.322 1.761 0 3.254-1.01 4.068-1.698 2.058 1.103 1.285.697 1.91 1.038 1.335-.73-.757.39 1.91-1.038.814.688 2.307 1.698 4.069 1.698 2.616 0 4.642-2.228 4.727-2.322l.595-.664-.595-.665c-.063-.07-1.193-1.31-2.838-1.95a14.405 14.405 0 0 0 1.927-2.057c1.565.193 3.285-.011 4.573-.913 2.145-1.5 2.513-4.489 2.528-4.616l.102-.88-.864-.203c-.091-.021-1.707-.388-3.408.022.165-.798.27-1.605.314-2.417.969-.413 2.695-1.352 3.485-3.045Zm-26.49-11.538c.46.567.998 1.44.998 2.412 0 .974-.536 1.855-.996 2.431-.46-.576-.997-1.459-.997-2.431 0-.975.538-1.846.996-2.412Zm-4.754 10.697c-.415-.89-.313-1.947-.149-2.691.697.353 1.605.957 2.022 1.85.415.889.314 1.945.15 2.69-.698-.352-1.606-.957-2.023-1.85Zm1.494 10.35c-.8-.56-1.238-1.52-1.466-2.246.759-.031 1.808.055 2.61.614.8.56 1.24 1.52 1.472 2.246-.763.032-1.815-.054-2.616-.614Zm7.247 8.21c-.978 0-1.89-.534-2.496-.995.607-.463 1.518-.996 2.496-.996.977 0 1.888.533 2.495.995-.607.463-1.518.996-2.495.996Zm20.846-21.253c.165.745.267 1.803-.149 2.693-.418.895-1.325 1.5-2.021 1.85-.165-.744-.267-1.801.149-2.692.418-.896 1.325-1.5 2.021-1.851Zm-4.904-7.98c.46.587.996 1.478.996 2.454 0 .974-.538 1.835-.996 2.391-.457-.556-.996-1.419-.996-2.391 0-.976.535-1.867.996-2.453ZM44.979 59.01c-.977 0-1.888-.532-2.494-.995.607-.462 1.52-.996 2.494-.996.978 0 1.89.533 2.495.995-.606.463-1.518.996-2.495.996Zm8.71-10.456c-.229.726-.666 1.687-1.464 2.246-.8.56-1.853.645-2.615.614.231-.726.672-1.685 1.473-2.245.8-.56 1.848-.646 2.606-.615Z"/><path fill="url(#b)" fill-rule="evenodd" d="M39 54.167S46.333 50.5 46.333 45v-6.417L39 35.833l-7.333 2.75V45c0 5.5 7.333 9.167 7.333 9.167Zm-4.333-13.505V45c0 1.41.988 2.94 2.642 4.388A16.5 16.5 0 0 0 39 50.677a16.489 16.489 0 0 0 1.691-1.289c1.654-1.447 2.642-2.977 2.642-4.388v-4.338L39 39.037l-4.333 1.625Zm5.682 10.825-.002-.001.002.001Z" clip-rule="evenodd"/><path fill="url(#c)" fill-rule="evenodd" d="M15 25.675c.728 0 1.42.156 2.043.435l19.1-10.985c.9-.5 2-.8 3-.8 1.1 0 2.1.3 3 .8l16.4 9.5c-1.2.8-2.1 2-2.7 3.4l-15.9-9.2c-.3-.2-.599-.2-.899-.2-.3 0-.6.1-.9.2L19.823 29.35A5.005 5.005 0 0 1 15 35.675a5 5 0 1 1 0-10Zm46.35.279a5 5 0 0 1 4.195 9.026v20.545c-.001 2.2-1.201 4.2-3.001 5.3l-16.4 9.4c0-1.5-.5-3-1.4-4.1l15.6-9c.6-.3.9-.9.9-1.6V35.358a5.007 5.007 0 0 1-3.183-3.899 4.574 4.574 0 0 1-.117-1.034c0-1 .3-1.9.9-2.7.05-.05.1-.125.15-.2.05-.075.1-.15.15-.2.3-.3.5-.5.8-.7 0 0 .1 0 .1-.1.062-.062.123-.085.209-.118.053-.02.114-.044.19-.082 0 0 .1 0 .1-.1.1-.05.176-.075.25-.1.076-.025.15-.05.25-.1.097-.024.2-.048.306-.071ZM43.843 69.43a5 5 0 1 1-9.78 2.043l-18.22-10.548c-1.9-1.1-3-3.1-3-5.3v-18.5c.7.2 1.5.4 2.2.4.7 0 1.4-.1 2-.3v18.4c0 .7.4 1.3.9 1.6l17.382 10.058a5.002 5.002 0 0 1 8.516 2.14l.002.002v.005Z" clip-rule="evenodd"/><path fill="#0B0D11" d="M79.7 41.138v.207c0 3.52 3.312 5.52 7.613 5.52 4.094 0 7.13-1.84 7.13-5.336 0-3.933-4.232-5.405-6.716-6.279-2.139-.736-2.967-1.104-2.967-1.817 0-.598.621-1.219 2.185-1.219 1.863 0 2.76 1.035 2.76 1.91v.16h4.485v-.253c0-3.565-3.15-5.796-7.337-5.796-4.094 0-7.015 2.14-7.015 5.566 0 3.703 3.75 5.083 6.601 6.026 2.162.736 3.06 1.196 3.06 1.955 0 .53-.553 1.104-2.278 1.104-2.093 0-3.036-.943-3.036-1.633v-.115H79.7ZM108.664 28.58v6.97h-7.314v-6.97h-4.577v17.94h4.577v-6.67h7.314v6.67h4.6V28.58h-4.6ZM116.323 28.58v17.94h4.6V28.58h-4.6ZM123.969 46.52h13.777v-4.439h-9.177v-2.3h7.544v-4.163h-7.544v-2.576h9.177V28.58h-13.777v17.94ZM140.262 46.52h13.179v-4.439h-8.602v-13.5h-4.577v17.94ZM155.409 46.52h8.326c5.612 0 8.487-4.07 8.487-8.97 0-4.876-2.875-8.97-8.487-8.97h-8.326v17.94Zm7.981-13.478c2.737 0 4.186 1.817 4.186 4.508s-1.449 4.531-4.186 4.531h-3.381v-9.039h3.381Z"/><path fill="#7F818C" fill-rule="evenodd" d="M128 51.865c2.3 0 4.1 1.8 4.1 4 0 1.5-.8 2.7-2 3.5.084.042.163.084.238.123.287.152.525.277.762.277.1 0 .5 0 .7-.3l1.5 1.2c-.6.8-1.5 1.1-2.2 1.1-.954 0-1.659-.498-2.349-.984-.467-.33-.926-.654-1.451-.816-1.9-.3-3.4-2-3.4-4 0-2.3 1.8-4.1 4.1-4.1Zm0 6.1c1.2 0 2.1-.9 2.1-2.1 0-1.2-.9-2.1-2.1-2.1-1.2 0-2.1.9-2.1 2.1 0 1.2.9 2.1 2.1 2.1Zm-44.3-2.7h3.7v4.5h-1.6v-.7c-.4.6-1.2.9-2 .9-2.2 0-4.1-1.8-4.1-4s1.9-4 4.1-4c1.3 0 2.5.6 3.3 1.6l-1.6 1.1c-.4-.5-1-.8-1.7-.8-1.2 0-2.1.9-2.1 2.1 0 1.2.9 2.1 2.1 2.1.7 0 1.3-.3 1.7-.9v-.2h-1.8v-1.7Zm9.4-3.2c2 0 2.9 1.3 2.9 2.8 0 1.1-.5 2.1-1.5 2.6l1.7 2.3h-2.4l-1.5-2.1h-1v2.1h-2v-7.7h3.8Zm-1.8 1.9v2H93c.8 0 1.1-.5 1.1-1 0-.6-.3-1-1.1-1h-1.7Zm14.1 5.8-3.1-7.7h-2l-3.1 7.7h2.2l.4-1.1h3l.4 1.1h2.2Zm-5-2.9.9-2.3.8 2.3h-1.7Zm6.5-4.8h3.4c2.1 0 3 1.4 3 3s-1 3-3 3h-1.4v1.8h-2v-7.8Zm2 1.8v2.4h1.3c.8 0 1.1-.5 1.1-1.2 0-.6-.3-1.2-1.1-1.2h-1.3Zm13.3 5.9v-7.7h-2v3H117v-3h-2v7.7h2v-2.9h3.2v2.9h2Zm13.6-7.7h-2v7.7h5.7v-1.9h-3.7v-5.8Z" clip-rule="evenodd"/><defs><linearGradient id="a" x1="18.169" x2="69.239" y1="25.796" y2="77.164" gradientUnits="userSpaceOnUse"><stop stop-color="#47DEFF"/><stop offset="1" stop-color="#9847FF"/></linearGradient><linearGradient id="b" x1="30.014" x2="56.915" y1="35.184" y2="56.83" gradientUnits="userSpaceOnUse"><stop stop-color="#47DEFF"/><stop offset="1" stop-color="#9847FF"/></linearGradient><linearGradient id="c" x1="3.465" x2="95.501" y1="12.152" y2="99.671" gradientUnits="userSpaceOnUse"><stop stop-color="#47DEFF"/><stop offset="1" stop-color="#9847FF"/></linearGradient></defs></svg>
